!!!OTL: 1090b. Lied zum langen Tanz der Ditmarsen im 16. Jahrh.
!!!ARE: Europa, Mitteleuropa, Deutschland, Norddeutschland, Ditmarschen
!!!SCT: E1090A
!!!YEM: Copyright 1995, estate of Helmut Schaffrath.
**kern	**text
*ICvox	*
*M6/4	*
*k[]	*
*C:	*
!LO:TX:a:t=Vorige Mel. im Tripeltakt.	!
{4c	Jk
=1	=1
2c	weet
4c	my
2c	ei-
4c	-ne
=2	=2
2g	ſcho-
4g	-ne
2g}	Magt,
{4g	ik
=3	=3
2f	nem
4g	ſe
2a	gern
4g	to
=4	=4
(2g	Wy-
4f)	.
2e	-be,
4r}	.
=5	=5
{4f	Kon-
4f	-de
4f	ſe
2g	mir
4e	von
=6	=6
2f	Ha-
4e	-ver-
2g	-ſtroo
4e}	.
=7	=7
{4f	ſpin-
4f	-nen
4f	de
2g	klei-
4e	-nen
=8	=8
2.d	Si-
2c}	-den.
==	==
!!!AGN: Wunsch - Lied, Luegen - Maerchen
!!!ONB: ESAC (Essen Associative Code) Database: ERK3
!!!AMT: compound duple
!!!AIN: vox
!!!EED: Helmut Schaffrath
!!!EEV: 1.0
!!!GTL: Raethsel-, Wett- und Wunschlieder, nebst Luegenmaerchen.
!!!URL-scan: https://rosdok.uni-rostock.de/mcrviewer/recordIdentifier/rosdok_ppn745177999/iview2/phys_0039.iview2?x=187.70929000834008&y=51.455074918456376&scale=0.701185927818147&rotation=0&layout=singlePageLayout
!!!ENC: Anna Maria Matuszewska
!!!EEV: 2024/12/23
*-	*-
